X:2944
T:H\"or hur h\"arligt
C:Fredrik Pacius
O:Finland
Z:Transcribed by Frank Nordberg - http://www.musicaviva.com
F:http://abc.musicaviva.com/tunes/pacius-fredrik/pacius-hor-hur-harligt.abc
M:3/4
L:1/8
K:Cm
C>D E>F G>A|(G>E) C2S EE|E3 E F^F|G3/2F//E// HD2SGG|
w:H\"or, hur h\"ar-ligt s\aan-gen skal--lar mel-lan V\"ai-n\"os ru-no-hal---lar: Det \"ar
c4A2|G4G=A|B4B2|HB4z2|:G>^F G>F G>c|c2=B2z2|
w:Suo-mis s\aang, det \"ar Suo-mis s\aang! H\"or de h\"o-ga fu-ror su-sa,
G>^F G>F G>c|c2=B2GG|e4d2|c4Scd|G4=B2|Hc4z2:|
w:h\"or de dju-pa str\"om-mar bru-sa: Det \"ar Suo-mis s\aang, det \"ar Suo-mis s\aang.
W:
W:H\"or, hur h\"arligt s\aangen skallar
W:mellan V\"ain\"os runohallar:
W:Det \"ar Suomis s\aang,
W:det \"ar Suomis s\aang!
W:H\"or de h\"oga furor susa,
W:h\"or de djupa str\"ommar brusa:
W:Det \"ar Suomis s\aang,
W:det \"ar Suomis s\aang.
W:
W:
W:  From Musica Viva - http://www.musicaviva.com
W:  the Internet center for free sheet music downloads.
